<?xml version="1.0" encoding="UTF-8"?>
<map version="1.10" tiledversion="1.12.2" orientation="orthogonal" renderorder="right-down" width="60" height="40" tilewidth="32" tileheight="32" infinite="0" nextlayerid="4" nextobjectid="1">
 <tileset firstgid="1" source="roads.tsx"/>
 <tileset firstgid="85" source="roads2.tsx"/>
 <tileset firstgid="195" source="roads3.tsx"/>
 <tileset firstgid="219" source="walls.tsx"/>
 <tileset firstgid="227" source="wall2.tsx"/>
 <tileset firstgid="228" source="buildings.tsx"/>
 <tileset firstgid="668" source="areas.tsx"/>
 <tileset firstgid="828" source="object.tsx"/>
 <tileset firstgid="868" source="rooms.tsx"/>
 <tileset firstgid="1018" source="rooms2.tsx"/>
 <layer id="1" name="Floor" width="60" height="40" locked="1">
  <data encoding="csv">
43,43,43,43,43,43,43,43,43,43,43,43,43,43,43,43,43,43,43,43,43,43,43,43,43,43,43,43,43,43,43,43,43,43,43,43,43,43,43,43,43,43,43,43,43,43,43,43,43,43,43,43,43,43,43,43,43,43,43,43,
43,43,43,43,43,43,43,43,43,43,43,43,43,43,43,43,43,43,43,43,43,43,43,43,43,43,43,43,43,43,43,43,43,43,43,43,43,43,43,43,43,43,43,43,43,43,43,43,43,43,43,43,43,43,43,43,43,43,43,43,
43,43,43,43,43,43,43,43,43,43,43,43,43,43,43,43,43,43,43,43,43,43,43,43,43,43,43,43,43,43,43,43,43,43,43,43,43,43,43,43,43,43,43,43,43,43,43,43,43,43,43,43,43,43,43,43,43,43,43,43,
43,43,43,43,43,43,43,43,43,43,43,43,43,43,43,43,43,43,43,43,43,43,43,43,43,43,43,43,43,43,43,43,43,43,43,43,43,43,43,43,43,43,43,43,43,43,43,43,43,43,43,43,43,43,43,43,43,43,43,43,
43,43,43,43,43,43,43,43,43,43,43,43,43,43,43,43,43,43,43,43,43,43,43,43,43,43,43,43,43,43,43,43,43,43,43,43,43,43,43,43,43,43,43,43,43,43,43,43,43,43,43,43,43,43,43,43,43,43,43,43,
43,43,43,43,43,43,43,43,43,43,43,43,43,43,43,43,43,43,43,43,43,43,43,43,43,43,43,43,43,43,43,43,43,43,43,43,43,43,43,43,43,43,43,43,43,43,43,43,43,43,43,43,43,43,43,43,43,43,43,43,
43,43,43,43,43,43,43,43,43,43,43,43,43,43,43,43,43,43,43,43,43,43,43,43,43,43,43,43,43,43,43,43,43,43,43,43,43,43,43,43,43,43,43,43,43,43,43,43,43,43,43,43,43,43,43,43,43,43,43,43,
43,43,43,43,43,43,43,43,43,43,43,43,43,43,43,43,43,43,43,43,43,43,43,43,43,43,43,43,43,43,43,43,43,43,43,43,43,43,43,43,43,43,43,43,43,43,43,43,43,43,43,43,43,43,43,43,43,43,43,43,
43,43,43,43,43,43,43,43,43,43,43,43,43,43,43,43,43,43,43,43,43,43,43,43,43,43,43,43,43,43,43,43,43,43,43,43,43,43,43,43,43,43,43,43,43,43,43,43,43,43,43,43,43,43,43,43,43,43,43,43,
43,43,43,43,43,43,43,43,43,43,43,43,43,43,43,43,43,43,43,43,43,43,43,43,43,43,43,43,43,43,43,43,43,43,43,43,43,43,43,43,43,43,43,43,43,43,43,43,43,43,43,43,43,43,43,43,43,43,43,43,
43,43,43,43,43,43,43,43,43,43,43,43,43,43,43,43,43,43,43,43,43,43,43,43,43,43,43,43,43,43,43,43,43,43,43,43,43,43,43,43,43,43,43,43,43,43,43,43,43,43,43,43,43,43,43,43,43,43,43,43,
43,43,43,43,43,43,43,43,43,43,43,43,43,43,43,43,43,43,43,43,43,43,43,43,43,43,43,43,43,43,43,43,43,43,43,43,43,43,43,43,43,43,43,43,43,43,43,43,43,43,43,43,43,43,43,43,43,43,43,43,
43,43,43,43,43,43,43,43,43,43,43,43,43,43,43,43,43,43,43,43,43,43,43,43,43,43,43,43,43,43,43,43,43,43,43,43,43,43,43,43,43,43,43,43,43,43,43,43,43,43,43,43,43,43,43,43,43,43,43,43,
43,43,43,43,43,43,43,43,43,43,43,43,43,43,43,43,43,43,43,43,43,43,43,43,43,43,43,43,43,43,43,43,43,43,43,43,43,43,43,43,43,43,43,43,43,43,43,43,43,43,43,43,43,43,43,43,43,43,43,43,
43,43,43,43,43,43,43,43,43,43,43,43,43,43,43,43,43,43,43,43,43,43,43,43,43,43,43,43,43,43,43,43,43,43,43,43,43,43,43,43,43,43,43,43,43,43,43,43,43,43,43,43,43,43,43,43,43,43,43,43,
43,43,43,43,43,43,43,43,43,43,43,43,43,43,43,43,43,43,43,43,43,43,43,43,43,43,43,43,43,43,43,43,43,43,43,43,43,43,43,43,43,43,43,43,43,43,43,43,43,43,43,43,43,43,43,43,43,43,43,43,
43,43,43,43,43,43,43,43,43,43,43,43,43,43,43,43,43,43,43,43,43,43,43,43,43,43,43,43,43,43,43,43,43,43,43,43,43,43,43,43,43,43,43,43,43,43,43,43,43,43,43,43,43,43,43,43,43,43,43,43,
43,43,43,43,43,43,43,43,43,43,43,43,43,43,43,43,43,43,43,43,43,43,43,43,43,43,43,43,43,43,43,43,43,43,43,43,43,43,43,43,43,43,43,43,43,43,43,43,43,43,43,43,43,43,43,43,43,43,43,43,
43,43,43,43,43,43,43,43,43,43,43,43,43,43,43,43,43,43,43,43,43,43,43,43,43,43,43,43,43,43,43,43,43,43,43,43,43,43,43,43,43,43,43,43,43,43,43,43,43,43,43,43,43,43,43,43,43,43,43,43,
43,43,43,43,43,43,43,43,43,43,43,43,43,43,43,43,43,43,43,43,43,43,43,43,43,43,43,43,43,43,43,43,43,43,43,43,43,43,43,43,43,43,43,43,43,43,43,43,43,43,43,43,43,43,43,43,43,43,43,43,
43,43,43,43,43,43,43,43,43,43,43,43,43,43,43,43,43,43,43,43,43,43,43,43,43,43,43,43,43,43,43,43,43,43,43,43,43,43,43,43,43,43,43,43,43,43,43,43,43,43,43,43,43,43,43,43,43,43,43,43,
43,43,43,43,43,43,43,43,43,43,43,43,43,43,43,43,43,43,43,43,43,43,43,43,43,43,43,43,43,43,43,43,43,43,43,43,43,43,43,43,43,43,43,43,43,43,43,43,43,43,43,43,43,43,43,43,43,43,43,43,
43,43,43,43,43,43,43,43,43,43,43,43,43,43,43,43,43,43,43,43,43,43,43,43,43,43,43,43,43,43,43,43,43,43,43,43,43,43,43,43,43,43,43,43,43,43,43,43,43,43,43,43,43,43,43,43,43,43,43,43,
43,43,43,43,43,43,43,43,43,43,43,43,43,43,43,43,43,43,43,43,43,43,43,43,43,43,43,43,43,43,43,43,43,43,43,43,43,43,43,43,43,43,43,43,43,43,43,43,43,43,43,43,43,43,43,43,43,43,43,43,
43,43,43,43,43,43,43,43,43,43,43,43,43,43,43,43,43,43,43,43,43,43,43,43,43,43,43,43,43,43,43,43,43,43,43,43,43,43,43,43,43,43,43,43,43,43,43,43,43,43,43,43,43,43,43,43,43,43,43,43,
43,43,43,43,43,43,43,43,43,43,43,43,43,43,43,43,43,43,43,43,43,43,43,43,43,43,43,43,43,43,43,43,43,43,43,43,43,43,43,43,43,43,43,43,43,43,43,43,43,43,43,43,43,43,43,43,43,43,43,43,
43,43,43,43,43,43,43,43,43,43,43,43,43,43,43,43,43,43,43,43,43,43,43,43,43,43,43,43,43,43,43,43,43,43,43,43,43,43,43,43,43,43,43,43,43,43,43,43,43,43,43,43,43,43,43,43,43,43,43,43,
43,43,43,43,43,43,43,43,43,43,43,43,43,43,43,43,43,43,43,43,43,43,43,43,43,43,43,43,43,43,43,43,43,43,43,43,43,43,43,43,43,43,43,43,43,43,43,43,43,43,43,43,43,43,43,43,43,43,43,43,
43,43,43,43,43,43,43,43,43,43,43,43,43,43,43,43,43,43,43,43,43,43,43,43,43,43,43,43,43,43,43,43,43,43,43,43,43,43,43,43,43,43,43,43,43,43,43,43,43,43,43,43,43,43,43,43,43,43,43,43,
43,43,43,43,43,43,43,43,43,43,43,43,43,43,43,43,43,43,43,43,43,43,43,43,43,43,43,43,43,43,43,43,43,43,43,43,43,43,43,43,43,43,43,43,43,43,43,43,43,43,43,43,43,43,43,43,43,43,43,43,
43,43,43,43,43,43,43,43,43,43,43,43,43,43,43,43,43,43,43,43,43,43,43,43,43,43,43,43,43,43,43,43,43,43,43,43,43,43,43,43,43,43,43,43,43,43,43,43,43,43,43,43,43,43,43,43,43,43,43,43,
43,43,43,43,43,43,43,43,43,43,43,43,43,43,43,43,43,43,43,43,43,43,43,43,43,43,43,43,43,43,43,43,43,43,43,43,43,43,43,43,43,43,43,43,43,43,43,43,43,43,43,43,43,43,43,43,43,43,43,43,
43,43,43,43,43,43,43,43,43,43,43,43,43,43,43,43,43,43,43,43,43,43,43,43,43,43,43,43,43,43,43,43,43,43,43,43,43,43,43,43,43,43,43,43,43,43,43,43,43,43,43,43,43,43,43,43,43,43,43,43,
43,43,43,43,43,43,43,43,43,43,43,43,43,43,43,43,43,43,43,43,43,43,43,43,43,43,43,43,43,43,43,43,43,43,43,43,43,43,43,43,43,43,43,43,43,43,43,43,43,43,43,43,43,43,43,43,43,43,43,43,
43,43,43,43,43,43,43,43,43,43,43,43,43,43,43,43,43,43,43,43,43,43,43,43,43,43,43,43,43,43,43,43,43,43,43,43,43,43,43,43,43,43,43,43,43,43,43,43,43,43,43,43,43,43,43,43,43,43,43,43,
43,43,43,43,43,43,43,43,43,43,43,43,43,43,43,43,43,43,43,43,43,43,43,43,43,43,43,43,43,43,43,43,43,43,43,43,43,43,43,43,43,43,43,43,43,43,43,43,43,43,43,43,43,43,43,43,43,43,43,43,
43,43,43,43,43,43,43,43,43,43,43,43,43,43,43,43,43,43,43,43,43,43,43,43,43,43,43,43,43,43,43,43,43,43,43,43,43,43,43,43,43,43,43,43,43,43,43,43,43,43,43,43,43,43,43,43,43,43,43,43,
43,43,43,43,43,43,43,43,43,43,43,43,43,43,43,43,43,43,43,43,43,43,43,43,43,43,43,43,43,43,43,43,43,43,43,43,43,43,43,43,43,43,43,43,43,43,43,43,43,43,43,43,43,43,43,43,43,43,43,43,
43,43,43,43,43,43,43,43,43,43,43,43,43,43,43,43,43,43,43,43,43,43,43,43,43,43,43,43,43,43,43,43,43,43,43,43,43,43,43,43,43,43,43,43,43,43,43,43,43,43,43,43,43,43,43,43,43,43,43,43,
43,43,43,43,43,43,43,43,43,43,43,43,43,43,43,43,43,43,43,43,43,43,43,43,43,43,43,43,43,43,43,43,43,43,43,43,43,43,43,43,43,43,43,43,43,43,43,43,43,43,43,43,43,43,43,43,43,43,43,43
</data>
 </layer>
 <layer id="2" name="Roads" width="60" height="40">
  <data encoding="csv">
0,0,0,0,0,0,0,0,0,0,0,0,0,0,0,0,0,0,0,0,0,0,0,0,0,0,0,0,0,0,0,0,0,1610612936,1610612948,203,204,203,204,203,204,199,200,0,0,0,0,0,1610612936,1610612948,203,204,203,204,203,204,203,204,199,200,
0,0,0,0,0,0,0,0,0,0,0,0,0,0,0,0,0,0,0,0,0,0,0,0,0,0,0,0,0,0,0,0,0,1610612935,1610612947,215,216,215,216,215,216,211,212,0,0,0,0,0,1610612935,1610612947,215,216,215,216,215,216,215,216,211,212,
0,0,0,0,0,0,0,0,0,0,195,196,203,204,203,204,203,204,203,204,203,204,199,200,0,181,182,0,0,0,0,0,0,2684354775,2684354763,0,0,0,0,0,0,2684354775,2684354763,0,0,0,0,0,2684354775,2684354763,0,0,0,0,0,0,0,0,2684354775,2684354763,
0,0,0,0,0,0,0,0,0,0,207,208,215,216,215,216,215,216,215,216,215,216,211,212,0,192,193,0,0,0,0,0,0,2684354775,2684354763,0,0,0,0,0,0,2684354775,2684354763,0,0,0,0,0,2684354775,2684354763,0,0,0,0,0,0,0,0,2684354776,2684354764,
0,0,0,0,0,0,0,0,0,0,2684354775,2684354763,0,0,0,0,0,0,0,0,0,0,2684354775,2684354763,0,2684354775,2684354763,0,0,0,0,0,0,2684354776,2684354764,0,0,0,0,0,0,2684354776,2684354764,0,0,0,0,0,2684354776,2684354764,0,0,0,0,0,0,0,0,2684354775,2684354763,
0,0,0,0,0,0,0,0,0,0,2684354776,2684354764,0,0,0,0,0,0,0,0,0,0,2684354776,2684354764,0,1610612938,1610612950,204,203,204,203,201,202,2684354771,2684354759,0,0,0,0,0,0,1610612938,1610612950,204,203,204,203,204,2684354773,2684354761,0,0,0,0,0,0,0,0,3221225665,3221225664,
0,0,0,0,0,0,0,0,0,0,2684354775,2684354763,0,0,0,0,0,0,0,0,0,0,2684354775,2684354763,0,1610612937,1610612949,216,215,216,215,213,214,2684354772,2684354760,0,0,0,0,0,0,1610612937,1610612949,216,215,216,215,216,2684354774,2684354762,0,0,0,0,0,0,0,0,3221225654,3221225653,
0,0,0,0,0,0,0,0,0,0,2684354776,2684354764,0,0,0,0,0,0,0,0,0,0,2684354776,2684354764,0,2684354776,2684354764,0,0,0,0,2684354775,2684354763,0,0,0,0,0,0,0,0,2684354775,2684354763,0,0,0,0,0,2684354775,2684354763,0,0,0,0,0,0,0,0,0,0,
0,0,0,0,0,0,0,0,0,0,2684354775,2684354763,0,0,0,0,0,0,0,0,0,0,2684354775,2684354763,0,2684354775,2684354763,0,0,0,0,2684354776,2684354764,0,0,0,0,0,0,0,0,2684354776,2684354764,0,0,0,0,0,2684354776,2684354764,0,0,0,0,0,0,0,0,0,0,
0,0,0,0,0,0,0,0,0,0,2684354776,2684354764,0,0,0,0,0,0,0,0,0,0,2684354776,2684354764,0,2684354776,2684354764,0,0,0,0,3221225684,3221225683,203,204,203,204,203,204,203,204,2684354773,2684354761,0,0,0,0,0,3221225684,3221225683,203,204,203,204,203,204,203,204,199,200,
203,204,203,204,203,204,203,204,203,204,197,198,203,204,203,204,199,200,0,0,0,0,2684354775,2684354763,0,2684354775,2684354763,0,0,0,0,3221225672,3221225671,215,216,215,216,215,216,215,216,2684354774,2684354762,0,0,0,0,0,3221225672,3221225671,215,216,215,216,215,216,215,216,211,212,
215,216,215,216,215,216,215,216,215,216,209,210,215,216,215,216,211,212,0,0,0,0,2684354776,2684354764,0,2684354776,2684354764,0,0,0,0,0,0,0,0,0,0,0,0,0,0,2684354775,2684354763,0,0,0,0,0,0,0,0,0,0,0,0,0,0,0,2684354775,2684354763,
0,0,0,0,0,0,0,0,0,0,2684354775,2684354763,0,0,0,0,1610612932,1610612944,203,204,203,204,1073742037,1073742038,203,197,198,3221225687,3221225688,3221225687,199,200,0,0,0,0,0,0,0,0,0,2684354776,2684354764,0,0,0,0,0,0,0,0,0,0,0,0,0,0,0,2684354776,2684354764,
0,0,0,0,0,0,0,0,0,0,2684354776,2684354764,0,0,0,0,1610612931,1610612943,215,216,215,216,1073742025,1073742026,215,209,210,3221225675,3221225676,3221225675,211,212,0,0,0,0,0,0,0,0,0,2684354775,2684354763,0,0,0,0,0,0,0,0,0,0,0,0,0,0,0,2684354775,2684354763,
0,0,0,0,0,0,0,0,0,0,2684354775,2684354763,0,0,0,0,0,0,0,0,0,0,0,0,0,2684354775,2684354763,0,0,0,2684354775,2684354763,0,0,0,0,0,0,0,0,0,2684354775,2684354763,0,0,0,0,0,0,0,0,0,0,0,0,0,0,0,2684354776,2684354764,
0,0,0,0,0,0,0,0,0,0,2684354776,2684354764,0,0,0,0,0,0,0,0,0,0,0,0,0,2684354776,2684354764,0,0,0,2684354776,2684354764,0,0,0,0,0,0,0,0,0,2684354776,2684354764,0,0,0,0,0,0,0,0,0,0,0,0,0,0,0,2684354775,2684354763,
0,0,0,0,0,0,0,0,0,0,2684354775,2684354763,0,0,0,0,0,0,0,0,0,0,0,0,0,2684354775,2684354763,0,0,0,1610612932,1610612944,203,204,203,204,203,204,203,203,204,197,198,203,204,203,204,203,204,203,201,202,204,203,204,203,204,204,2684354771,2684354759,
0,0,0,0,0,0,0,0,0,0,2684354776,2684354764,0,0,0,0,195,196,203,204,203,204,203,203,204,2684354773,2684354761,0,0,0,1610612931,1610612943,215,216,215,216,215,216,215,215,216,209,210,215,216,215,216,215,216,215,213,214,216,215,216,215,216,216,2684354772,2684354760,
0,0,0,0,0,0,0,0,195,196,2684354771,2684354759,0,0,0,0,207,208,215,216,215,216,215,215,216,2684354774,2684354762,0,0,0,0,0,0,0,0,0,0,0,0,0,0,2684354775,2684354763,0,0,0,0,0,0,0,2684354775,2684354763,0,0,0,0,0,0,0,0,
0,0,0,0,0,0,0,0,207,208,2684354772,2684354760,0,0,0,0,2684354775,2684354763,0,0,0,0,0,0,0,2684354776,2684354764,0,0,0,0,0,0,0,0,0,0,0,0,0,0,2684354776,2684354764,0,0,0,0,0,0,0,2684354776,2684354764,0,0,0,0,0,0,0,0,
0,0,0,0,0,0,0,0,2684354775,2684354763,0,0,0,0,0,0,2684354776,2684354764,0,0,0,0,0,0,0,2684354775,2684354763,0,0,0,0,195,196,203,204,201,202,203,204,203,204,3221225680,3221225679,0,0,0,0,0,0,0,2684354775,2684354763,0,0,0,0,0,0,0,0,
0,0,0,0,0,0,0,0,2684354776,2684354764,0,0,0,0,0,0,2684354775,2684354763,0,0,0,0,0,0,0,2684354776,2684354764,0,0,0,0,207,208,215,216,213,214,215,216,215,216,3221225668,3221225667,0,0,0,0,0,0,0,2684354776,2684354764,0,0,0,0,0,0,0,0,
0,0,0,0,0,0,0,0,2684354775,2684354763,0,0,0,0,0,0,2684354776,2684354764,0,0,0,0,0,0,0,2684354775,2684354763,0,0,0,0,2684354775,2684354763,0,0,2684354775,2684354763,0,0,0,0,0,0,0,0,0,0,0,0,0,2684354775,2684354763,0,0,0,0,0,0,0,0,
0,0,0,0,0,0,0,0,2684354776,2684354764,0,0,0,0,0,0,2684354775,2684354763,0,0,0,0,0,0,0,2684354776,2684354764,0,0,0,0,2684354776,2684354764,0,0,2684354776,2684354764,0,0,0,0,0,0,0,0,0,0,0,0,0,2684354776,2684354764,0,0,0,0,0,0,0,0,
0,0,0,0,0,0,0,0,2684354775,2684354763,0,0,0,0,0,0,3221225684,3221225683,3221225688,3221225687,3221225688,3221225687,3221225688,3221225688,3221225687,2684354773,2684354761,0,0,0,0,3221225684,3221225683,203,204,197,198,203,204,199,200,0,0,0,0,0,0,0,0,0,2684354775,2684354763,0,0,0,0,0,0,0,0,
0,0,0,0,0,0,0,0,2684354776,2684354764,0,0,0,0,0,0,3221225672,3221225671,3221225676,3221225675,3221225676,3221225675,3221225676,3221225676,3221225675,2684354774,2684354762,0,0,0,0,3221225672,3221225671,215,216,209,210,215,216,211,212,0,0,0,0,0,0,0,0,0,2684354776,2684354764,0,0,0,0,0,0,0,0,
0,0,0,0,0,0,0,0,2684354775,2684354763,0,0,0,0,0,0,0,0,0,0,0,0,0,0,0,1610612939,1610612951,0,0,0,0,0,0,0,0,2684354775,2684354763,0,0,2684354775,2684354763,0,0,0,0,0,0,0,0,0,2684354775,2684354763,0,0,0,0,0,0,0,0,
0,0,0,0,0,0,0,0,2684354776,2684354764,0,0,0,0,0,0,0,0,0,0,0,0,0,0,0,2684354776,2684354764,0,0,0,0,0,0,0,0,2684354776,2684354764,0,0,2684354776,2684354764,0,0,0,0,0,0,0,0,0,2684354776,2684354764,0,0,0,0,0,0,0,0,
1610612936,1610612948,203,204,203,204,203,204,197,198,203,203,203,203,204,203,204,203,204,203,204,203,204,203,204,197,198,203,204,203,204,203,204,203,204,1073742037,1073742038,3221225688,3221225687,1073742037,1073742038,203,204,203,204,203,204,203,204,203,197,198,203,204,203,204,203,204,199,200,
1610612935,1610612947,215,216,215,216,215,216,209,210,215,215,215,215,216,215,216,215,216,215,216,215,216,215,216,209,210,215,216,215,216,215,216,215,216,1073742025,1073742026,3221225676,3221225675,1073742025,1073742026,215,216,215,216,215,216,215,216,215,209,210,215,216,215,216,215,216,211,212,
2684354775,2684354763,0,0,0,0,0,0,2684354775,2684354763,0,0,0,0,0,0,0,0,0,0,0,0,0,0,0,2684354775,2684354763,0,0,0,0,0,0,0,0,0,0,0,0,0,0,0,0,0,0,0,0,0,0,0,2684354775,2684354763,0,0,0,0,0,0,2684354775,2684354763,
2684354776,2684354764,0,0,0,0,0,0,2684354776,2684354764,0,0,0,0,0,0,0,0,0,0,0,0,0,0,0,2684354776,2684354764,0,0,0,0,0,0,0,0,0,0,0,0,0,0,0,0,0,0,0,0,0,0,0,2684354776,2684354764,0,0,0,0,0,0,2684354776,2684354764,
2684354775,2684354763,0,0,0,0,0,0,2684354775,2684354763,0,0,0,0,0,0,0,0,0,0,0,0,0,0,0,2684354775,2684354763,0,0,0,0,0,0,0,0,0,0,0,0,0,0,0,0,0,195,196,203,204,203,204,2684354771,2684354759,0,0,0,0,0,0,2684354775,2684354763,
2684354776,2684354764,0,0,0,0,0,0,2684354776,2684354764,0,0,0,0,0,0,0,0,0,0,0,0,0,0,0,2684354776,2684354764,0,0,0,0,0,0,0,0,0,0,0,0,0,0,0,0,0,207,208,215,216,215,216,2684354772,2684354760,0,0,0,0,0,0,2684354776,2684354764,
2684354775,2684354763,0,0,0,0,0,0,1610612940,1610612952,0,0,0,0,0,0,0,0,0,0,0,0,0,0,0,1610612938,1610612950,0,0,0,0,0,0,0,195,196,203,204,203,204,203,204,203,204,2684354773,2684354761,0,0,0,0,0,0,0,0,0,0,0,0,2684354775,2684354763,
2684354776,2684354764,0,0,0,0,0,0,1610612939,1610612951,0,0,0,0,0,0,0,0,0,0,0,0,0,0,0,1610612937,1610612949,0,0,0,0,0,0,0,207,208,215,216,215,216,215,216,215,216,2684354774,2684354762,0,0,0,0,0,0,0,0,0,0,0,0,2684354776,2684354764,
2684354775,2684354763,0,0,0,0,0,0,1610612940,1610612952,0,0,0,0,0,0,0,0,0,0,0,0,0,0,0,2684354775,2684354763,0,0,0,0,0,0,0,2684354775,2684354763,0,0,0,0,0,0,0,0,2684354775,2684354763,0,0,0,0,0,0,0,0,0,0,0,0,2684354775,2684354763,
2684354776,2684354764,0,0,0,0,0,0,1610612939,1610612951,0,0,0,0,0,0,0,0,0,0,0,0,0,0,0,2684354776,2684354764,0,0,0,0,0,0,0,2684354776,2684354764,0,0,0,0,0,0,0,0,2684354776,2684354764,0,0,0,0,0,0,0,0,0,0,0,0,2684354776,2684354764,
3221225684,3221225683,3221225688,3221225687,3221225688,3221225687,3221225688,3221225687,2684354771,2684354759,0,0,0,0,0,0,0,0,0,0,0,0,0,0,0,3221225684,3221225683,203,204,203,204,203,203,204,2684354771,2684354759,0,0,0,0,0,0,0,0,3221225684,3221225683,203,204,203,203,203,203,203,203,203,203,203,204,2684354771,2684354759,
3221225672,3221225671,3221225676,3221225675,3221225676,3221225675,3221225676,3221225675,2684354772,2684354760,0,0,0,0,0,0,0,0,0,0,0,0,0,0,0,3221225672,3221225671,215,216,215,216,215,215,216,2684354772,2684354760,0,0,0,0,0,0,0,0,3221225672,3221225671,215,216,215,215,215,215,215,215,215,215,215,216,2684354772,2684354760
</data>
 </layer>
 <layer id="3" name="Buildings" width="60" height="40">
  <data encoding="csv">
236,237,238,239,240,241,242,243,244,245,221,222,221,222,221,222,221,222,221,221,221,221,221,222,2684354779,836,837,266,267,268,269,270,271,0,0,0,0,0,0,0,0,0,0,1610612958,830,831,832,833,0,0,0,0,0,0,0,0,0,0,0,0,
280,281,282,283,284,285,286,287,288,289,225,226,225,226,225,226,225,226,225,225,225,225,225,226,2684354780,846,847,310,311,312,313,314,315,0,0,0,0,0,0,0,0,0,0,1610612957,840,841,842,843,0,0,0,0,0,0,0,0,0,0,0,0,
324,325,326,327,328,329,330,331,332,333,0,0,0,0,0,0,0,0,0,0,0,0,0,0,2684354781,0,0,354,355,356,357,358,359,0,0,266,267,268,269,270,271,0,0,1610612958,850,851,852,853,0,0,221,222,221,222,221,222,221,222,0,0,
368,369,370,371,372,373,374,375,376,377,0,0,0,0,0,0,0,0,0,0,0,0,0,0,2684354781,0,0,398,399,400,401,402,403,0,0,310,311,312,313,314,315,0,0,1610612957,860,861,862,863,0,0,676,677,678,679,680,681,682,683,0,0,
412,413,414,415,416,417,418,419,420,421,0,0,221,222,221,222,221,222,221,222,221,222,0,0,2684354781,0,0,442,443,444,445,446,447,0,0,354,355,356,357,358,359,0,0,1610612955,3221225694,3221225693,3221225694,3221225693,0,0,708,709,710,711,712,713,714,715,0,0,
456,457,458,459,460,461,462,463,464,465,0,0,290,291,292,293,294,295,296,297,298,299,0,0,2684354781,0,0,0,0,0,0,0,0,0,0,398,399,400,401,402,403,0,0,0,0,0,0,0,0,0,740,741,742,743,744,745,746,747,0,0,
500,501,502,503,504,505,506,507,508,509,0,0,334,335,336,337,338,339,340,341,342,343,0,0,2684354781,0,0,0,0,0,0,0,0,0,0,442,443,444,445,446,447,0,0,0,0,0,0,0,0,0,772,773,774,775,776,777,778,779,0,0,
544,545,546,547,548,549,550,551,552,553,0,0,378,379,380,381,382,383,384,385,386,387,0,0,2684354781,0,0,221,222,221,222,0,0,836,837,486,487,488,489,490,491,0,0,842,843,838,839,2684354780,0,0,804,805,806,807,808,809,810,811,836,837,
588,589,590,591,592,593,594,595,596,597,0,0,422,423,424,425,426,427,428,429,430,431,0,0,2684354781,0,0,830,831,832,833,0,0,846,847,530,531,532,533,534,535,0,0,852,853,848,849,2684354780,0,0,1073742045,1073742046,1073742045,1073742046,1073742045,1073742046,1073742045,1073742046,846,847,
632,633,634,635,636,637,638,639,640,641,0,0,466,467,468,469,470,471,472,473,474,475,0,0,2684354781,0,0,840,841,842,843,0,0,0,0,0,0,0,0,0,0,0,0,862,863,858,859,2684354780,0,0,0,0,0,0,0,0,0,0,0,0,
0,0,0,0,0,0,0,0,0,0,0,0,0,0,0,0,0,0,836,837,836,837,0,0,2684354781,0,0,850,851,852,853,0,0,0,0,0,0,0,0,0,0,0,0,67,67,847,846,847,0,0,0,0,0,0,0,0,0,0,0,0,
0,0,0,0,0,0,0,0,0,0,0,0,0,0,0,0,0,0,846,847,846,847,0,0,2684354782,0,0,860,861,862,863,1610612958,692,693,694,695,696,697,698,699,2684354781,0,0,684,685,686,687,688,689,690,684,685,686,687,688,689,690,691,0,0,
228,229,230,231,232,233,234,235,828,829,0,0,221,222,221,222,0,0,0,0,0,0,0,0,0,0,0,0,0,0,0,0,724,725,726,727,728,729,730,731,2684354782,0,0,716,717,718,719,720,721,722,716,717,718,719,720,721,722,723,0,0,
272,273,274,275,276,277,278,279,838,839,0,0,832,833,836,837,0,0,0,0,0,0,0,0,0,0,0,0,0,0,0,0,756,757,758,759,760,761,762,763,2684354781,0,0,748,749,750,751,752,753,754,748,749,750,751,752,753,754,755,0,0,
316,317,318,319,320,321,322,323,848,849,0,0,842,843,846,847,221,222,848,849,221,222,221,222,2684354779,0,0,1610612958,828,829,0,0,788,789,790,791,792,793,794,795,2684354781,0,0,780,781,782,783,784,785,786,780,781,782,783,784,785,786,787,0,0,
360,361,362,363,364,365,366,367,858,859,0,0,852,853,830,831,848,849,858,859,834,835,834,835,2684354781,0,0,1610612957,838,839,0,0,820,821,822,823,824,825,826,827,2684354782,0,0,812,813,814,815,816,817,818,812,813,814,815,816,817,818,819,0,0,
404,405,406,407,408,409,410,411,836,837,0,0,862,863,840,841,858,859,1073742045,1073742046,844,845,844,845,2684354782,0,0,1610612958,848,849,0,0,0,0,0,0,0,0,0,0,0,0,0,0,0,0,0,0,0,0,0,0,0,0,0,0,0,0,0,0,
448,449,450,451,452,453,454,455,846,847,0,0,836,837,850,851,0,0,0,0,0,0,0,0,0,0,0,1610612957,858,859,0,0,0,0,0,0,0,0,0,0,0,0,0,0,0,0,0,0,0,0,0,0,0,0,0,0,0,0,0,0,
492,493,494,495,496,497,498,499,0,0,0,0,846,847,860,861,0,0,0,0,0,0,0,0,0,0,0,836,836,836,837,836,837,1005,1006,1007,1008,1009,1010,1111,1111,0,0,1610612956,1044,1045,1046,1047,1048,1049,0,0,221,222,221,222,221,222,221,222,
536,537,538,539,540,541,542,543,0,0,0,0,220,220,220,220,0,0,219,220,220,220,220,220,220,0,0,830,831,832,833,846,847,1005,1006,1007,1008,1009,1010,1149,1149,0,0,1610612956,1082,1083,1084,1085,1086,1087,0,0,228,229,230,231,232,233,234,235,
228,229,230,231,232,233,234,235,0,0,874,875,876,877,878,879,0,0,1610612956,830,831,836,834,828,829,0,0,840,841,842,843,0,0,0,0,0,0,0,0,0,0,0,0,1610612956,1120,1121,1122,1123,1124,1125,0,0,272,273,274,275,276,277,278,279,
272,273,274,275,276,277,278,279,0,0,899,900,901,902,903,904,0,0,1610612956,840,841,846,844,838,839,0,0,850,851,852,853,0,0,0,0,0,0,0,0,0,0,0,0,1610612956,1158,1159,1160,1161,1162,1163,0,0,316,317,318,319,320,321,322,323,
316,317,318,319,320,321,322,323,0,0,924,925,926,927,928,929,0,0,1610612956,850,851,836,835,848,849,0,0,860,861,862,863,0,0,848,849,0,0,848,849,836,848,849,886,887,888,889,890,891,892,3758096604,0,0,360,361,362,363,364,365,366,367,
360,361,362,363,364,365,366,367,0,0,949,950,951,952,953,954,0,0,1610612956,860,861,846,845,858,859,0,0,3221225694,3221225693,3221225694,3221225693,0,0,858,859,0,0,858,859,846,858,859,911,912,913,914,915,916,917,3758096604,0,0,404,405,406,407,408,409,410,411,
404,405,406,407,408,409,410,411,0,0,974,975,976,977,978,979,0,0,0,0,0,0,0,0,0,0,0,830,831,832,833,0,0,0,0,0,0,0,0,0,0,536871132,936,937,938,939,940,941,942,3758096604,0,0,448,449,450,451,452,453,454,455,
448,449,450,451,452,453,454,455,0,0,999,1000,1001,1002,1003,1004,0,0,0,0,0,0,0,0,0,0,0,840,841,842,843,0,0,0,0,0,0,0,0,0,0,536871132,961,962,963,964,965,966,967,3758096604,0,0,492,493,494,495,496,497,498,499,
492,493,494,495,496,497,498,499,0,0,836,68,836,837,67,67,836,837,835,836,837,834,835,836,837,0,0,850,851,852,853,834,836,837,835,0,0,848,849,0,0,536871132,986,987,988,989,990,991,992,3758096604,0,0,536,537,538,539,540,541,542,543,
536,537,538,539,540,541,542,543,0,0,1073742045,1073742046,1073742045,1073742046,67,67,1073742045,1073742046,1073742045,1073742046,1073742045,1073742046,1073742045,1073742045,1073742046,0,0,860,861,862,863,844,846,847,845,0,0,858,859,0,0,1610612955,1073742044,1073742044,1073742044,1073742044,1073742044,1073742044,1073742044,3221225691,0,0,1073742045,1073742046,1073742045,1073742046,1073742045,1073742046,1073742045,1073742046,
0,0,0,0,0,0,0,0,0,0,0,0,0,0,0,0,0,0,0,0,0,0,0,0,0,0,0,0,0,0,0,0,0,0,0,0,0,0,0,0,0,0,0,0,0,0,0,0,0,0,0,0,0,0,0,0,0,0,0,0,
0,0,0,0,0,0,0,0,0,0,0,0,0,0,0,0,0,0,0,0,0,0,0,0,0,0,0,0,0,0,0,0,0,0,0,0,0,0,0,0,0,0,0,0,0,0,0,0,0,0,0,0,0,0,0,0,0,0,0,0,
0,0,1018,1019,1020,1021,1022,1023,0,0,668,669,670,671,672,673,674,228,229,230,231,232,233,234,235,0,0,1610612956,1031,1032,1033,1034,1035,1036,2684354780,536871132,1044,1045,1046,1047,1048,1049,2684354780,536871132,834,835,848,849,836,837,0,0,880,881,882,883,884,885,0,0,
0,0,1056,1057,1058,1059,1060,1061,0,0,700,701,702,703,704,705,706,272,273,274,275,276,277,278,279,0,0,1610612956,1069,1070,1071,1072,1073,1074,2684354780,536871132,1082,1083,1084,1085,1086,1087,2684354780,536871132,844,845,858,859,846,847,0,0,905,906,907,908,909,910,0,0,
0,0,1094,1095,1096,1097,1098,1099,0,0,732,733,734,735,736,737,738,316,317,318,319,320,321,322,323,0,0,1610612956,1107,1108,1109,1110,1111,1112,2684354780,536871132,1120,1121,1122,1123,1124,1125,2684354780,536871132,0,0,0,0,0,0,0,0,930,931,932,933,934,935,0,0,
0,0,1132,1133,1134,1135,1136,1137,0,0,764,765,766,767,768,769,770,360,361,362,363,364,365,366,367,0,0,1610612956,1145,1146,1147,1148,1149,1150,2684354780,536871132,1158,1159,1160,1161,1162,1163,2684354780,536871132,0,0,0,0,0,0,0,0,955,956,957,958,959,960,0,0,
0,0,1018,1019,1020,1021,1022,1023,0,0,796,797,798,799,800,801,802,404,405,406,407,408,409,410,411,2684354775,2684354763,1610612956,1050,1051,1052,1053,1054,1055,0,0,0,0,0,0,0,0,0,0,0,0,1018,1019,1020,1021,1022,1023,980,981,982,983,984,985,0,0,
0,0,1056,1057,1058,1059,1060,1061,0,0,1037,1038,1039,1040,1041,1042,1043,448,449,450,451,452,453,454,455,2684354776,2684354764,1610612956,1088,1089,1090,1091,1092,1093,0,0,0,0,0,0,0,0,0,0,0,0,1056,1057,1058,1059,1060,1061,1005,1006,1007,1008,1009,1010,0,0,
0,0,1094,1095,1096,1097,1098,1099,0,0,1075,1076,1077,1078,1079,1080,1081,492,493,494,495,496,497,498,499,0,0,1610612956,1126,1127,1128,1129,1130,1131,0,0,536871132,1050,1051,1052,1053,1054,1055,2684354780,0,0,1094,1095,1096,1097,1098,1099,848,849,837,848,849,837,0,0,
0,0,1132,1133,1134,1135,1136,1137,0,0,1113,1114,1115,1116,1117,1118,1119,536,537,538,539,540,541,542,543,0,0,1610612956,1164,1165,1166,1167,1168,1169,0,0,536871132,1088,1089,1090,1091,1092,1093,2684354780,0,0,1132,1133,1134,1135,1136,1137,858,859,847,858,859,847,0,0,
0,0,0,0,0,0,0,0,0,0,1151,1152,1153,1154,1155,1156,1157,836,837,834,835,836,837,834,835,0,0,0,0,0,0,0,0,0,0,0,536871132,1126,1127,1128,1129,1130,1131,2684354780,0,0,0,0,0,0,0,0,0,0,0,0,0,0,0,0,
0,0,0,0,0,0,0,0,0,0,1189,1190,1191,1192,1193,1194,1195,846,847,844,845,846,847,844,845,0,0,0,0,0,0,0,0,0,0,0,536871132,1164,1165,1166,1167,1168,1169,2684354780,0,0,0,0,0,0,0,0,0,0,0,0,0,0,0,0
</data>
 </layer>
</map>
